X: 7
T: the Blarney Pilgrim
R: jig
Z: 2012 John Chambers <jc@trillian.mit.edu>
B: "100 Essential Irish Session Tunes" 1995 Dave Mallinson, ed.
M: 6/8
L: 1/8
K: G
G |\
"G"DED DEG | {Ac}"D"A2G ABc | "G"BAG AGE | "C"GEA GED |\
"G"DED DEG | {Ac}"D"A2G ABc | "G"BAG "C"AGE | "D"GED D2 :|
|: B |\
"G"ded dBG | "D"AGA BGE | "G"ded dBG | "D"ABA "G"GBd |\
"Em"g3e dBG | "Am"AGA "Em"BGE | "G"B2G "D"AGE |1 "C"GAG "G"G2 :|2 "C"GAG "A7"GFG |]
|:\
"D"A2D B2D | A2D ABc | "C"BAG AGE | GEA GED |\
"D"A2D B2D | A2D ABc | "G"BAG "Em"AGE |1 "C"GED "A7"DEG :|2 "C"GED "D"D2 |]

%%sep 2 1 500
%%sep 1 1 500

